X: 41097
T: Trip To Portugal
R: jig
M: 6/8
K: Gmajor
|:G,B,D CEG|{E}FGA GA/B/c|d2B cd/c/B|{G}AGF GDC|
B,DG CEG|{E}FGA GA/B/c|d2B cd/c/B|1 AGF GDB,:|2 AGF GA/B/c||
|:dBc {A}Bc/B/G|AGF GDC|B,FG A,FG|CFG DE/F/G|
dBc {A}Bc/B/G|{B}AGF GDC|B,DG G/A/Bc|1 AGF GA/B/c:|2 AGF GDB,||

